clients/portal/components/icon/svgs/restore_from_trash.svg

<svg width="24" height="24" viewBox="0 0 24 24" fill="none" xmlns="http://www.w3.org/2000/svg">
<path d="M15.5 4L14.5 3H9.5L8.5 4H5V6H19V4H15.5ZM6 19C6 20.1 6.9 21 8 21H16C17.1 21 18 20.1 18 19V7H6V19ZM8 14V9H16V19H8V14ZM10 18H14V14H16L12 10L8 14H10V18Z" fill="#475569"/>
</svg>

<svg xmlns="http://www.w3.org/2000/svg" height="24" viewBox="0 0 24 24" width="24"><path d="M0 0h24v24H0V0z" fill="currentColor"/><path d="M15.5 4l-1-1h-5l-1 1H5v2h14V4zM6 19c0 1.1.9 2 2 2h8c1.1 0 2-.9 2-2V7H6v12zm2-5V9h8v10H8v-5zm2 4h4v-4h2l-4-4-4 4h2z"/></svg>
